X: 19789
T: Jer O'Connell's
R: polka
M: 2/4
K: Gmajor
dG Bc|d2 d>e|fd cA|AB ce|
dG Bc|d2 d>e|fd cA|AG G2:|
dg ga|b2 a>g|fd de|fg af|
dg ga|b2 a>g|fd cA|AG G2|
dg ga|b2 a>g|fd de|fg af|
gb af|gf d>e|fd cA|AG G2|

